X: 1
T: John Angus Beaton
C: Kinnon Beaton
R: strathspey
S: Fiddle Hell Online 2020-11-05 Andrea Beaton workshop
Z: 2021 John Chambers <jc:trillian.mit.edu>
M: 4/4
L: 1/8
K: A
"*" F/ |\
E<A A>G F>E F<A | c<e e>c c>B B<c |\
E<A A>G F>E F<A | c<e B>d c>A A> :|
c |\
e>f e>c e<A c>A | E<A c>A c>B B<c |\
e>f e>c e<A c>A | E<d c>B c<A A>c |
e>f e>c e<A c>A | E<A c>A c>B B<c |\
E<A A>G F>E F<A | c<e B>d c>A A> |]
["*Variation"B,/ | A,<A ] |
